X: 35966
T: Sarah's Revenge
R: polka
M: 2/4
K: Adorian
|:EA EA|B/c/B/A/ GB|EA B/c/B/A/|GF ED|
EA EA|B/c/B/A/ GB|EA B/c/B/A/|BA A2:|
|:AB cd|e/=f/e/d/ cA|EA EA|B/c/B/A/ GB|
A>B cd|e/=f/e/d/ cA|EA B/c/B/A/|BA A2:|

